src/16/actions/call-start.svg

<svg xmlns="http://www.w3.org/2000/svg" width="16" height="16" viewBox="0 0 16 16">
 <defs>
  <style id="current-color-scheme" type="text/css">
   .ColorScheme-Text { color:#565656; } .ColorScheme-Highlight { color:#5294e2; }
  </style>
 </defs>
 <path style="fill:currentColor" class="ColorScheme-Text" d="M 9.9980469 1.0039062 C 9.4440369 1.0039062 8.9980469 1.4498963 8.9980469 2.0039062 L 8.9980469 4.0039062 C 8.9980469 4.5579162 9.4440369 5.0039062 9.9980469 5.0039062 L 10.466797 5.0039062 C 9.5628969 7.5608063 7.5549469 9.5687762 4.9980469 10.472656 L 4.9980469 10.003906 C 4.9980469 9.4499063 4.5520469 9.0039062 3.9980469 9.0039062 L 1.9980469 9.0039062 C 1.4440469 9.0039062 0.99804688 9.4499063 0.99804688 10.003906 L 0.99804688 13.003906 C 0.99804688 13.557906 1.4219669 14.003906 1.9667969 14.003906 L 1.9980469 14.003906 C 8.6148469 14.003906 13.980947 8.6479563 13.998047 2.0351562 L 13.998047 1.9726562 C 13.998047 1.4308963 13.563327 1.0039062 13.029297 1.0039062 L 9.9980469 1.0039062 z"/>
</svg>

<svg xmlns="http://www.w3.org/2000/svg" width="16" height="16"><defs><style id="current-color-scheme" type="text/css"></style></defs><path d="M9.998 1.004c-.554 0-1 .446-1 1v2c0 .554.446 1 1 1h.469a8.967 8.967 0 0 1-5.469 5.469v-.47c0-.553-.446-1-1-1h-2c-.554 0-1 .447-1 1v3c0 .555.424 1 .969 1h.031c6.617 0 11.983-5.355 12-11.968v-.062a.965.965 0 0 0-.969-.97H9.998z" fill="currentColor" color="#565656"/></svg>
